X: 33532
T: Rainy Day, The
R: reel
M: 4/4
K: Gdorian
GF|:DGGF ~G3 A|Bcdc BAGB|AF ~F2 cF ~F2|(3ABc fc dcAF|
DGGF ~G3 A|BAGA Bcde|~f2 ge fdcA|FAcA AG G2:|
dggf dggf|dcde f2 af|cfff gfff|gfge fdcf|
dggf dggf|dcde f2 gf|fdcA FAgf|fdcA AG G2:|

